X:1
T:Title
%%score [ ( 1 2 ) ( 3 4 ) ]
L:1/8
Q:1/4=120
M:none
K:A
V:1 treble nm="Midi_74" snm=" "
V:2 treble 
V:3 bass nm="Midi_74"
V:4 bass 
V:1
 c4 c2 c2 c4 B2 B2 !fermata!d4 | %1
w: Our Fa- ther, which art in heav'n,|
 c3"^The Lord's Prayer""^(version in""^A""^major)" c c2 c2 B2 !fermata!B4 | %2
w: hal- low- ed be thy name.|
 c4 c4 B2"^Robert Stone""^(1516-1613)" !fermata!^A4 | %3
w: Thy king- dom come.|
 ^A2 =A4 A2 A2 B2 A4 A4 !courtesy!^G2 A2 B2 !fermata!A4 | d4 c2 B2 A4 B4 c4 B2 !fermata!B4 | %5
w: Thy will be done in earth as it is in heav'n.|Give us this day our dai- ly bread.|
 B4 B2 c4 c2 c2 d4 c2 !fermata!c4 | c4 B2 A2 B4 d2 d2 c4 B2 A2 G4 !fermata!A4 | %7
w: And for- give us our tres- pas- ses,|as we for- give them that tres- pass a- gainst us.|
 A2 A4 B2 ^A4 =A2 B4 c2 d3 d !fermata!c4 |: c2 c2 e4 d2 c2 B2 A2 A2 (B3 c ^A2) !fermata!B8 :| %9
w: And lead us not in- to temp- ta- ti- on;|but de- li- ver us from ev- il. A * * men.|
V:2
 A4 A2 A2 A4 G2 G2 A4 | A3 A A2 A2 F2 G4 | A4 A4 F2 F4 | F2 F4 F2 F2 D2 F4 E4 E2 C2 F2 F4 | %4
 F4 F2 F2 F4 G4 A4 F2 G4 | G4 G2 A4 A2 A2 F4 A2 A4 | A4 G2 F2 G4 A2 A2 A4 G2 C2 E4 E4 | %7
 E2 F4 D2 F4 F2 F4 A2 A3 A A4 |: A2 A2 A4 F2 A2 D2 F2 F2 (D2 F4) F8 :| %9
V:3
 E4 E2 E2 E4 E2 E2 F4 | E3 E E2 C2 D2 E4 | E4 F4 D2 C4 | C2 C4 C2 D2 B,2 C4 C4 B,2 A,2 D2 C4 | %4
 B,4 A,2 D2 C4 E4 E4 ^D2 E4 | E4 E2 E4 F2 F2 D4 E2 !fermata!E4 | %6
 E4 E2 C2 E4 F2 F2 E4 E2 A,2 B,4 !fermata!C4 | C2 D4 B,2 C4 C2 D4 E2 F3 F F4 |: %8
 E2 E2 C4 D2 E2 B,2 C2 C2 (B,2 C4) ^D8 :| %9
V:4
 A,4 A,2 A,2 A,4 E,2 E,2 !fermata!D,4 | A,3 A, A,2 A,2 B,2 !fermata!E,4 | %2
 A,4 F,4 B,2 !fermata!F,4 | F,2 F,4 F,2 D,2 =G,2 F,4 A,4 E,2 F,2 D,2 !fermata!F,4 | %4
 B,4 F,2 D,2 F,4 E,4 A,4 B,2 !fermata!E,4 | E,4 E,2 A,4 F,2 F,2 B,4 A,2 A,4 | %6
 A,4 E,2 F,2 E,4 D,2 D,2 A,4 E,2 F,2 E,4 A,4 | A,2 D,4 =G,2 F,4 F,2 B,4 A,2 D,3 D, !fermata!F,4 |: %8
 A,2 A,2 A,4 B,2 A,2 =G,2 F,2 F,2 (G,2 F,4) !fermata!B,,8 :| %9

